svg/24/chevrons-up.svg

<svg width="24" height="24" viewBox="0 0 24 24" fill="currentColor" xmlns="http://www.w3.org/2000/svg"><path d="M16.7197 17.7803C17.0126 18.0732 17.4874 18.0732 17.7803 17.7803C18.0732 17.4874 18.0732 17.0126 17.7803 16.7197L12.5303 11.4697C12.2374 11.1768 11.7626 11.1768 11.4697 11.4697L6.21967 16.7197C5.92678 17.0126 5.92678 17.4874 6.21967 17.7803C6.51256 18.0732 6.98744 18.0732 7.28033 17.7803L12 13.0607L16.7197 17.7803Z"/><path d="M16.7197 12.7803C17.0126 13.0732 17.4874 13.0732 17.7803 12.7803C18.0732 12.4874 18.0732 12.0126 17.7803 11.7197L12.5303 6.46967C12.2374 6.17678 11.7626 6.17678 11.4697 6.46967L6.21967 11.7197C5.92678 12.0126 5.92678 12.4874 6.21967 12.7803C6.51256 13.0732 6.98744 13.0732 7.28033 12.7803L12 8.06066L16.7197 12.7803Z"/></svg>

<svg xmlns="http://www.w3.org/2000/svg" width="24" height="24" fill="currentColor" viewBox="0 0 24 24">
  <path d="M16.72 17.78a.75.75 0 1 0 1.06-1.06l-5.25-5.25a.75.75 0 0 0-1.06 0l-5.25 5.25a.75.75 0 1 0 1.06 1.06L12 13.06l4.72 4.72Z"/>
  <path d="M16.72 12.78a.75.75 0 1 0 1.06-1.06l-5.25-5.25a.75.75 0 0 0-1.06 0l-5.25 5.25a.75.75 0 1 0 1.06 1.06L12 8.06l4.72 4.72Z"/>
</svg>
